X:1
T: The Marquis of Tweeddale's Favourite
C:D. MacDonald
R:Strathspey
Q: 128
K:D
M:4/4
L:1/16
|:A,2|DD3 F3A GFED F4|EB,3 B,3E DCB,A, A,2B,C|DD3 F3A GFED F4|E3B, C3A, D4 D2A,2|
DD3 F3A GFED F4|EB,3 B,3E DCB,A, A,2B,C|DD3 F3A GFED F4|E3B, C3A, D4 D2Bc|
df3 ce3 Bd3 F4|G3E F3D E3D B,2Bc|df3 ce3 Bd3 F4|G3E GFED A,D3 D2Bc|
df3 ca3 Bg3 Af3|G3E F3D FEDC B,3E|DD3 F3A GFED F4|E3B, C3A, D4 D2:|
